X: 1
T: Never Was Piping So Gay
M: 4/4
L: 1/8
R: reel
K: Gmaj
D | G,2B,D GBdB | cafd cAFA | G2BG DGBG | AF~F2 dFAF |
G2BG DGBA | Ggfe ^cdef | gfgd BdBG | FGAd BGG :|| 
f | gfgd BdBG | DGBd cAFA | GB{^c}BA BcdB | cafd ^cdef |
gfgd BdBG | DGBd cAFA | BG~G2 AF~F2 | BdcA ~G2G :||
